X: 441
T: Buxiang nijia zunzun danxiang ren
%%abc-version 2.0
%%abcx-abcm2ps-target-version 5.9.1 (29 Sep 2008)
%%abc-creator hum2abc beta
%%abcx-conversion-date 2013/10/02 07:52:30
%%abc-edited-by Helmut Schaffrath
%%humdrum-veritas 2096237555
%%humdrum-veritas-data 1085425380
%%continueall 1
%%barnumbers 0
L: 1/8
M: 2/4
K: D
B e e d/ B/ [I:setbarnb 1]| 
A E D B, | 
A3F/ F/ | 
A F/ E/ E D/ B,/ | 
B4 | 
B e e d/ B/ | 
A E D B, | 
A3F/ F/ | 
A F/ E/ E D/ B,/ | 
E4 |]  



